!!!COM: Bach, Johann Sebastian
!!!CDT: 1685///-1750///
!!!CNT@EN: German
!!!OPR@DE: Musikalisches, BWV 1007
!!!OPR@EN: Musical Offering, BWV 1007
!!!OTL: Trio
!!!OMD: Largo
!!!OMV: No. 12
!!!ODT: 1747///
!!!SCT: BWV 1079
!!!SCA: Thematisch-systematisches Verzeichnis der musikalischen Werke Johann Sebastian Bach: Bach-Werke-Verzeichnis (Schmieder)
**kern	**kern	**dynam	**kern
*staff3	*staff2	*staff2	*staff1
*Icemba	*Ivioln	*Ivioln	*Iflt_a
*>[A,A,B,B1,B,B2]	*>[A,A,B,B1,B,B2]	*>[A,A,B,B1,B,B2]	*>[A,A,B,B1,B,B2]
*>norep[A,B,B2]	*>norep[A,B,B2]	*>norep[A,B,B2]	*>norep[A,B,B2]
*>A	*>A	*>A	*>A
*clefF4	*clefG2	*clefG2	*clefG2
*k[b-e-a-]	*k[b-e-a-]	*k[b-e-a-]	*k[b-e-a-]
*M3/4	*M3/4	*M3/4	*M3/4
*MM48	*MM48	*MM48	*MM48
=1-	=1-	=1-	=1-
(8C/L	8.g\L	.	2.r
8C/	.	.	.
.	16ee-\Jk	.	.
.	(ccq/	.	.
8D/	4.b-\)	.	.
8D/	.	.	.
8D/	.	.	.
8D/J)	8cc\	.	.
=2	=2	=2	=2
(8E-\L	4.cc\	.	2.r
8E-\	.	.	.
8En\	.	.	.
8E\	(16b-/LL	.	.
.	16a-/JJ	.	.
8E\	16cc/LL	.	.
.	16b-/	.	.
8E\J)	16a-/	.	.
.	16g/JJ)	.	.
=3	=3	=3	=3
(8F\L	16a-/LL	.	8.cc\L
.	16g/	.	.
8F\	16a-/	.	.
.	16cc/JJ	.	16aa-\Jk
.	.	.	(ffq/
8G\	(16b-\LL	.	4.een\)
.	16dd-\)	.	.
8G\	(16dd-\	.	.
.	16cc\JJ)	.	.
8G\	(16cc\LL	.	.
.	16b-\)	.	.
8G\J)	(16b-\	.	8ff\
.	16cc\JJ)	.	.
=4	=4	=4	=4
8A-\L	(16cc\LL	.	4.ff\
.	16bn\	.	.
8A-\J	16cc\	.	.
.	16ee-\JJ)	.	.
8BBn/L	[2ddn\	.	.
8BB/	.	.	(16ee-\LL
.	.	.	16dd\JJ
8BB/	.	.	16gg\LL
.	.	.	16ff\
8BB/J	.	.	16ee-\
.	.	.	16dd\JJ)
=5	=5	=5	=5
8.C\L	8dd\L_	.	8ee-\L
.	(32dd\LL]	.	(32ff\LL
.	32cc\	.	32ee-\
16c\Jk	32bn\	.	32dd\
.	32cc\JJJ)	.	32ee-\JJJ)
(Gq/	.	.	.
4.F#\)	4.cc\	.	4.ee-\
8G\	8bn\	.	8dd\
=6	=6	=6	=6
4G\	16bn\LL	.	(16dd/LL
.	(16g\	.	16f#/J)
.	16b\	.	8g'/J
.	16dd\JJ)	.	.
8r	(16ff\LL	.	8r
.	16aa-\)	.	.
8GG/L	(16aa-\	.	8bn/
.	16gg\JJ)	.	.
8GG/	(16gg\LL	.	8.b/L
.	16ff\)	.	.
8GG/J	(16ff\	.	.
.	16ee-\JJ)	.	32an/LL
.	.	.	32b/JJJ
=7	=7	=7	=7
4GG/	(16ee-\LL	.	16cc/LL
.	16bn\J)	.	(16d/
.	8cc'\J	.	16e-/
.	.	.	16g/JJ)
8r	8r	.	(16cc\LL
.	.	.	16ee-\)
8G\L	8f#/	p	(16ee-\
.	.	.	16dd\JJ)
8G\	8.f#/L	.	(16dd\LL
.	.	.	16cc\)
8G\J	.	.	(16cc\
.	32en/LL	.	16bn\JJ)
.	32f#/JJJ	.	.
=8	=8	=8	=8
16G/LL	2g/	.	2bn\
(16GG/	.	.	.
16BBn/	.	.	.
16D/JJ)	.	.	.
(16F\LL	.	.	.
16A-\)	.	.	.
(16A-\	.	.	.
16G\JJ)	.	.	.
(16G\LL	4r	.	4r
16F\)	.	.	.
(16F\	.	.	.
16En\JJ)	.	.	.
=9	=9	=9	=9
16En\LL	2.r	.	8.cc\L
16C\	.	.	.
16E\	.	.	.
16G\JJ	.	.	16bb-\Jk
.	.	.	(aa-q/
(16B-\LL	.	.	4.gg\)
16d-\)	.	.	.
(16d-\	.	.	.
16c\JJ)	.	.	.
16c\LL	.	.	.
16B-\	.	.	.
16A-\	.	.	8aa-\
16G\JJ	.	.	.
=10	=10	=10	=10
16F/LL	8.f\L	.	[2.aa-\
16FF/	.	.	.
16AA-/	.	.	.
16C/JJ	(16ee-\Jk	.	.
.	ddq/	.	.
(16E-\LL	4.cc\)	.	.
16G\)	.	.	.
(16G\	.	.	.
16F\JJ)	.	.	.
16F\LL	.	.	.
16E-\	.	.	.
16D\	8dd\	.	.
16C\JJ	.	.	.
=11	=11	=11	=11
8BB-/L	[2.dd\	.	16aa-\LL]
.	.	.	(16b-\
8BB-/	.	.	16dd\
.	.	.	16ff\JJ)
8BB-/	.	.	(16aa-\LL
.	.	.	16ccc\)
8BB-/	.	.	(16ccc\
.	.	.	16bb-\JJ)
8BB-/	.	.	(16bb-\LL
.	.	.	16aa-\)
8BB-/J	.	.	(16aa-\
.	.	.	16gg\JJ)
=12	=12	=12	=12
8E-\L	16dd/LL]	.	[2.gg\
.	(16e-/	.	.
8E-\	16g/	.	.
.	16b-/JJ)	.	.
8E-\	(16dd-\LL	.	.
.	16ff\)	.	.
8E-\	(16ff\	.	.
.	16ee-\JJ)	.	.
8E-\	(16ee-\LL	.	.
.	16dd-\)	.	.
8E-\J	(16dd-\	.	.
.	16cc\JJ)	.	.
=13	=13	=13	=13
4AA-/	8cc/L	.	16gg\LL]
.	.	.	(16ccc\
.	(8c/	.	16een\
.	.	.	16ff\JJ)
4A-\	8f/	.	16r
.	.	.	(16aa-\LL
.	8a-/	.	16bn\
.	.	.	16cc\JJ)
8r	8cc/	.	16r
.	.	.	(16ff\LL
8C/	8ee-/J)	.	16g\
.	.	.	16a-\JJ)
=14	=14	=14	=14
4BB-/	16dd/LL	.	8a-\L
.	(16B-/	.	.
.	16g/	.	(8dd\
.	16f/JJ)	.	.
4B-\	16r	.	8ff\
.	(16d/LL	.	.
.	16cc/	.	8aa-\J)
.	16b-/JJ)	.	.
8r	16r	.	16ccc\LL
.	(16f/LL	.	(16aa-\
8A-\	16ee-/	.	16gg\
.	16dd/JJ)	.	16ff\JJ)
=15	=15	=15	=15
8G\L	8.ee-\L	.	8.bb-\L
8A-\	.	.	.
.	16a-\Jk	.	16cc\Jk
.	(gq/	.	ee-q/
8B-\	4.f/)	.	4.dd\
8B-\	.	.	.
8BB-\	.	.	.
8BB-\J	8e-/	.	8ee-\
=16	=16	=16	=16
8EE-\L	2.e-/	.	2.ee-\
8E-\	.	.	.
8G\	.	.	.
8F\	.	.	.
8E-\	.	.	.
8D\J	.	.	.
=17:|!|:	=17:|!|:	=17:|!|:	=17:|!|:
*>B	*>B	*>B	*>B
(8E-\L	2.r	.	8.gg\L
8E-\	.	.	.
.	.	.	16b-\Jk
.	.	.	(ccq/LLL
.	.	.	dd-q/
.	.	.	ee-q/JJJ
8F\	.	.	4.dd-\)
8F\	.	.	.
8G\	.	.	.
8G\J)	.	.	8cc\
=18	=18	=18	=18
(8A-\L	2.r	.	16cc/LL
.	.	.	(16dn/
8A-\	.	.	16e-/
.	.	.	16g/JJ)
8A-\	.	.	(16a-\LL
.	.	.	16cc\
8A-\	.	.	16ee-\
.	.	.	16dd\JJ)
8G-\	.	.	[4ee-\
8G-\J)	.	.	.
=19	=19	=19	=19
8F\L	8.aan\L	.	16ee-\LL]
.	.	.	(16ccc\
8F\	.	.	16dd\
.	16cc\Jk	.	16ee-\JJ)
.	(ddq/LLL	.	.
.	ee-q/	.	.
.	ffq/JJJ	.	.
8Gn\	4.ee-\)	.	16r
.	.	.	(16gg\LL
8G\	.	.	16an\
.	.	.	16b-\JJ)
8An\	.	.	16r
.	.	.	(16ee-\LL
8A\J	8dd\	.	16f\)
.	.	.	16g-\JJ
=20	=20	=20	=20
8B-\L	16dd/LL	.	8f\L
.	(16en/	.	.
8B-\	16f/	.	(8ee-\
.	16an/JJ)	.	.
8B-\	(16b-\LL	.	8dd\)
.	16dd\	.	.
8B-\	16ff\	.	(8aa-\
.	16een\JJ)	.	.
8A-\	[4ff\	.	8bn\
8A-\J	.	.	8cc\J)
=21	=21	=21	=21
(8G\L	16ff\LL]	.	8bn/L
.	(16ddd\	.	.
8G\	16een\	.	8g/J
.	16ff\JJ)	.	.
8D\	16r	.	8r
.	(16aa-\LL	.	.
8D\	16bn\	.	8ff\
.	16cc\JJ)	.	.
8BBn\	16r	.	(8.dd\L
.	(16ff\LL	.	.
8BB\J)	16g\	.	.
.	16a-\JJ)	.	32cc\LL)
.	.	.	32dd\JJJ
=22	=22	=22	=22
(8C/L	4g/	.	[2.ee-\
8C/	.	.	.
8BB-/	8r	.	.
8BB-/	8cc\	.	.
8AAn/	(8.f#/L	.	.
8AA/J)	.	.	.
.	32en/LL	.	.
.	32f#/JJJ)	.	.
=23	=23	=23	=23
(8BB-/L	4.g/	.	8ee-\]
8BB-/	.	.	4dd\
8E-/	.	.	.
8E-/	8G/	.	(16cc\LL
.	.	.	16b-\JJ)
8C/	(16c/LL	.	(16an/LL
.	16B-/	.	16g/
8C/J)	16An/	.	16f#/
.	16B-/JJ)	.	16g/JJ)
=24	=24	=24	=24
16D/LL	4An/	.	8f#\L
(16DD/	.	.	.
16FF#/	.	.	(8ee-\
16AAn/JJ)	.	.	.
(16C/LL	8r	.	8dd\)
16E-/)	.	.	.
(16E-/	(8aan\L	.	(8ff#\
16D/JJ)	.	.	.
16D/LL	8bb-\	.	8gg\
16C/	.	.	.
16BB-/	8ccc\J)	.	8aan\J)
16AA/JJ	.	.	.
=25	=25	=25	=25
(8GG/L	8.ddd\L	.	32cc/LLL
.	.	.	(32b-/J
.	.	.	16an/J
8GG/	.	.	8g/J)
.	16dd\Jk	.	.
.	(ee-q/LLL	.	.
.	ffq/	.	.
.	ggq/JJJ	.	.
8AAn/	4.ff\)	.	4r
8AA/	.	.	.
8BBn/	.	.	4r
8BB/J)	8ee-\	.	.
=26	=26	=26	=26
(8C/L	(16ee-\LL	.	8.gg\L
.	16ff\	.	.
8C/	16ee-\)	.	.
.	16dd'\JJ	.	16g\Jk
.	.	.	(anq/LLL
.	.	.	b-q/
.	.	.	ccq/JJJ
8D/	(16dd\LL	.	4.b-\)
.	16ee-\	.	.
8D/	16dd\)	.	.
.	16cc'\JJ	.	.
8E-/)	[4cc\	.	.
8E-/J	.	.	8an/
=27	=27	=27	=27
8FF#/L	8.cc/L]	.	(16an/LL
.	.	.	16b-/
8AAn/	.	.	16a/)
.	16e-/Jk	.	16g'/JJ
8C/	[4e-/	.	(16g/LL
.	.	.	16a/
8BB-/	.	.	16g/)
.	.	.	16f#'/JJ
8C/	8.e-/L]	.	8.f#\L
8AA/J	.	.	.
.	16ee-/Jk	.	16ff#\Jk
=28	=28	=28	=28
8BB-/L	8.dd\L	.	8.gg\L
8GG/	.	.	.
.	16bb-\Jk	.	16g\Jk
8D/	(4gg\	.	(4b-\
8D/	.	.	.
8DD/	8.ff#\L)	.	8.an/L)
8DD/J	.	.	.
.	16gg\Jk	.	16g/Jk
=29	=29	=29	=29
8GG/L	16gg\LL	.	4g/
.	(16bb-\	.	.
8GG/	16cc#\	.	.
.	16dd\JJ)	.	.
8BB-/	16r	.	[2dd\
.	(16gg\LL	.	.
8D/	16an\	.	.
.	16b-\JJ)	.	.
8BB-/	16r	.	.
.	(16dd\LL	.	.
8GG/J	16f#\	.	.
.	16g\JJ)	.	.
=30	=30	=30	=30
8EE-/L	16g'\LL	.	(16dd\LL]
.	(16dd\	.	16g\
8E-/	16bn\	.	16ffn\
.	16cc\JJ)	.	16ee-\JJ)
8D/	(8aa-\L	.	16r
.	.	.	(16bn\LL
8D/	8ff\	.	16aa-\
.	.	.	16gg\JJ)
8G/	8bn\	.	16r
.	.	.	(16dd\LL
8G/J	8f\J)	.	16ccc\
.	.	.	16bbn\JJ)
=31	=31	=31	=31
8C\L	(16f/LL	.	16ccc\LL
.	16e-/	.	(16eee-\
8C\	16d/	.	16ff#\
.	16c/JJ)	.	16gg\JJ)
8E-\	[2g/	.	16r
.	.	.	(16ccc\LL
8G\	.	.	16dd\
.	.	.	16ee-\JJ)
8E-\	.	.	16r
.	.	.	(16gg\LL
8C\J	.	.	16bn\
.	.	.	16cc\JJ)
=32	=32	=32	=32
8AA-\L	16g/LL]	.	16cc'\LL
.	(16c/	.	(16bb-\
8A-\	16b-/	.	16een\
.	16a-/JJ)	.	16ff\JJ)
8G\	16r	.	(8ddd-\L
.	(16en/LL	.	.
8G\	16dd-/	.	8bb-\
.	16cc/JJ)	.	.
8c\	16r	.	8een\
.	(16g\LL	.	.
8c\J	16ff\	.	8b-\J)
.	16een\JJ)	.	.
=33	=33	=33	=33
(8F\L	4ff\	.	8.a-\L
8F\	.	.	.
.	.	.	16aa-\Jk
.	.	.	(ffq/
8G\	4r	.	4.een\)
8G\	.	.	.
8G\	4r	.	.
8G\J)	.	.	8ff\
=34	=34	=34	=34
8A-\L	2.r	.	4.ff\
8A-\	.	.	.
(8BBn\	.	.	.
8BB\	.	.	(16ee-\LL
.	.	.	16dd\JJ
8BB\	.	.	16gg\LL
.	.	.	16ff\
8BB\J)	.	.	16ee-\
.	.	.	16dd\JJ)
=35	=35	=35	=35
8C/L	8.g\L	.	16ee-\LL
.	.	.	(16dd\
8C/	.	.	16ee-\
.	16ee-\Jk	.	16gg\JJ)
.	(ccq/	.	.
(8D/	4.bn\)	.	(16ff\LL
.	.	.	16aa-\)
8D/	.	.	(16aa-\
.	.	.	16gg\JJ)
8D/	.	.	(16gg\LL
.	.	.	16ff\)
8D/J)	8cc\	.	(16ff\
.	.	.	16gg\JJ)
=36	=36	=36	=36
8E-/L	4.cc\	.	16gg\LL
.	.	.	(16ff#\
8E-/	.	.	16gg\
.	.	.	16ccc\JJ)
.	.	.	(ffnq/
(8FF#/	.	.	2ee-\)
8FF#/	(16bn/LL	.	.
.	16an/JJ	.	.
8FF#/	16dd/LL	.	.
.	16cc/	.	.
8FF#/J)	16b/	.	.
.	16a/JJ)	.	.
=37	=37	=37	=37
8GG/L	4bn\	.	(16dd'\LL
.	.	.	16g\
8G/	.	.	16bn\
.	.	.	16dd\JJ)
8D/	4r	.	16ff'\LL
.	.	.	(16aa-\
8BBn/	.	.	16gg\
.	.	.	(16ff\JJ)
8GG/	4r	.	16ddd'\LL
.	.	.	(16aa-\)
8BB/J	.	.	16gg\
.	.	.	16ff\JJ)
=38	=38	=38	=38
8C\L	16r	.	8.ee-\L
.	(16c/LL	.	.
8c\	16e-/	.	.
.	16g/JJ)	.	16bb-\Jk
.	.	.	(ffq/
8G\	16b-'\LL	.	4.ee-\)
.	(16dd-\	.	.
8En\	16cc\)	.	.
.	16b-\JJ	.	.
8C\	16gg'\LL	.	.
.	(16dd-\	.	.
8E\J	16cc\	.	[8gg\
.	16b-\JJ)	.	.
=39	=39	=39	=39
8FF/L	8.a-\L	.	16gg\LL]
.	.	.	(16f\
8F/	.	.	16a-\
.	16ee-\Jk	.	16cc\JJ)
.	(b-q/	.	.
8C/	4an/)	.	16ee-'\LL
.	.	.	(16gg\
8AAn/	.	.	16ff\
.	.	.	16ee-\JJ)
8FF/	8r	.	16ccc'\LL
.	.	.	(16gg\
8AA/J	[8cc\	.	16ff\
.	.	.	16ee-\JJ)
=40	=40	=40	=40
8BB-\L	16cc/LL]	.	8.dd\L
.	(16B-/	.	.
8B-\	16d/	.	.
.	16f/JJ)	.	16aa-\Jk
.	.	.	ee-q/
8F\	16a-'/LL	.	[2dd\
.	(16cc/	.	.
8D\	16b-/	.	.
.	16a-/JJ)	.	.
8BB-\	16ff'\LL	.	.
.	(16cc\	.	.
8D\J	16b-\	.	.
.	16a-\JJ)	.	.
=41	=41	=41	=41
16BBn/LL	8.g/L	.	8.dd\L]
16GG/	.	.	.
16BB/	.	.	.
16D/JJ	16a-/Jk	.	16ff\Jk
.	(e-q/	.	(ccq/
(16F\LL	4.d/)	.	4.bn\)
16A-\)	.	.	.
(16A-\	.	.	.
16G\JJ)	.	.	.
(16G\LL	.	.	.
16F\)	.	.	.
(16F\	8bn\	.	8aa-\
16E-\JJ)	.	.	.
=42	=42	=42	=42
(8E-/L	8.cc/L	.	8.gg\L
8F/	.	.	.
.	16a-/Jk	.	16cc\Jk
8G/	(4e-/	.	(4cc\
8G/	.	.	.
8GG/	8.d/L)	.	8.bn\L)
8GG/J)	.	.	.
.	16c/Jk	.	16cc\Jk
=43	=43	=43	=43
(8AA-/L	(16c/LL	.	4cc\
.	16e-/	.	.
8AA-/	16g/	.	.
.	16cc/JJ)	.	.
8AA-/	(16ff\LL	.	8r
.	16aa-\)	.	.
8AA-/	16aa-\	.	8cc\
.	16gg\JJ	.	.
.	.	.	(dd-q/
8AA-/	(16gg\LL	.	8.cc\L)
.	16ff\)	.	.
8AA-/J)	(16ff\	.	.
.	16een\JJ)	.	32b-\LL
.	.	.	32cc\JJJ
=44	=44	=44	=44
(8GG/L	4een\	.	(16dd-\LL
.	.	.	16b-\
8GG/	.	.	16een\
.	.	.	16gg\JJ)
8GG/	8r	.	(16bb-\LL
.	.	.	16ddd\)
8GG/	8en/	.	(16ddd-\
.	.	.	16ccc\JJ)
8GG/	8.e/L	.	(16ccc\LL
.	.	.	16bb-\)
8GG/J)	.	.	(16bb-\
.	32d/LL	.	16aa-\JJ)
.	32e/JJJ	.	.
=45	=45	=45	=45
4FF/	16f'\LL	.	8aa-\L
.	(16aa-\	.	.
.	16b-\	.	(8a-\
.	16dd-\JJ)	.	.
4F\	16r	.	8dd-\
.	16ff\LL	.	.
.	16g\	.	8ff\
.	16a-\JJ	.	.
8r	16r	.	8aa-\
.	(16dd-\LL	.	.
8AA-/	16en\	.	8ddd-\J)
.	16f\JJ)	.	.
=46	=46	=46	=46
4GG/	8f\L	.	16bbn\LL
.	.	.	(16g\
.	(8bn\	.	16ee-\
.	.	.	16ddn\JJ)
4G\	8dd\	.	16r
.	.	.	(16bn\LL
.	8ff\J)	.	16aa-\
.	.	.	16gg\JJ)
8r	16aa-'\LL	.	16r
.	(16ff\	.	(16dd\LL
8F\	16ee-\	.	16ccc\
.	16dd\JJ)	.	16bbn\JJ)
=47	=47	=47	=47
8E-/L	8.gg\L	.	8.ccc\L
8F/	.	.	.
.	16an\Jk	.	16ff\Jk
.	(ccq/	.	(ee-q/
8G/	4.bn\)	.	4.dd\)
8G/	.	.	.
8GG/	.	.	.
8GG/J	8cc\	.	8cc\
=48	=48	=48	=48
*>B1	*>B1	*>B1	*>B1
16CC/LL	2.cc\	.	2.cc\
16C/	.	.	.
16E-/	.	.	.
16G/JJ	.	.	.
16c\LL	.	.	.
16e-\	.	.	.
16d\	.	.	.
16c\JJ	.	.	.
16B-\LL	.	.	.
16A-\	.	.	.
16G\	.	.	.
16F\JJ	.	.	.
=49:|!	=49:|!	=49:|!	=49:|!
*>B2	*>B2	*>B2	*>B2
2.CC/	2.cc\	.	2.cc\
==	==	==	==
*-	*-	*-	*-
!!!ENC: Craig Stuart Sapp
!!!END: 2005/05/16/
